X: 33313
T: Quarantine, The
R: jig
M: 6/8
K: Bminor
F|:B2 B Bcd|cBA BAF|d2d def|fed ecA|
B2B Bcd|cBA BAF|GAB ABc|dcA|B2A:|
|:d2d def|afe dBA|B2B Bcd|efe cdA|
d2d def|afe dBA|GAB ABc|1 dcA B2A:|2 dcA B3||

